X:15
T:Klaveren aas
O:belgium
C:Trad.
Z:Bart Vanhaverbeke 
L:1/8
M:3/4
K:G
D2 B2 B2 | cd cB A2 | DA AA AA | d2 d2 B2 | D2 B2 B2 | c>d cB AG | Fe dc AF | G4 z2 :|]
K:C
C4 ^C2 | D6 | D4 ^D2 | E6 | C4 ^C2 | D6 | G2 A2 B2 | c6 :|]
K:G
G2 B2 d2 | d2 c2 c2 | B2 d2 B2 | B2 A2 A2 | DB BA G2 | Ec cB A2 | F2 E2 F2 | G4 z2 :|]
g3 e ag | fa de f2 | fa de fB | cd ef g2 | g3 e ag | fa de f2 | fg a2 b2 | c'4 z2 :|]
